X:1
T:Father, Long before Creation
T:Text: Chinese, c. 1952; tr. Francis P. Jones, 1953, alt. Tune: William H. Monk, 1871
T:87 87 47 CORONAE www.hymnary.org/text/father_long_before_creation
T:Father, Long before Creation
T:This hymn is in the public domain. You may freely use this score for personal and congregational worship. If you reproduce the score, please credit Hymnary.org as the source. 
T:This hymn is in the public domain. You may freely use this score for personal and congregational worship. If you reproduce the score, please credit Hymnary.org as the source. 
Z:This hymn is in the public domain. You may freely use this score for personal and congregational worship. If you reproduce the score, please credit Hymnary.org as the source.
%%score ( 1 2 ) ( 3 4 5 )
L:1/8
M:4/4
K:F
V:1 treble nm="SOPRANO ALTO" snm="S. A."
V:2 treble 
V:3 bass nm="TENOR BASS" snm="T. B."
V:4 bass 
V:5 bass 
V:1
"^1""^2""^3""^4" A2 A2 c2 c2 | F2 F2 G2 A2 | D2 E2 F2 G2 | A2 c2 G4 | A2 A2 c2 c2 | F2 F2 A2 A2 | %6
w: Fa- ther, long be-|fore cre- a- tion|you had cho- sen|us in love,|and that love so|deep, so mov- ing,|
w: Though the world may|change its fash- ion,|you will still re-|main the same;|your com- pas- sion|and your cov- enant|
w: Your com- pas- sion|is our sto- ry,|is our boast- ing|all the day;|mer- cy free and|nev- er fail- ing|
w: Lov- ing Fa- ther,|now be- fore you|we shall ev- er|sing your grace,|and our song will|sound for- ev- er|
 D2 E2 F2 B2 | G2 c2 A4 | A4 c4 |1 d4 c4 | A2 c2 F2 B2 | A6 G2 | F8 |] %13
w: draws us close to|Christ a- bove.|Still it|keeps us|firm- ly fixed in|Christ a-|lone.|
w: through all a- ges|will re- main.|Your own|chil- dren|shall for- ev- er|praise your|name.|
w: moves our will, di-|rects our way.|God so|loved us|that he gave his|on- ly|Son.|
w: when we see you|face to face,|giv- ing|glo- ry|to the Lamb up-|on the|throne.|
V:2
 F2 F2 E2 C2 | C2 D2 E2 C2 | D2 C2 C2 C2 | C2 C2 C4 | F2 F2 G2 G2 | F2 D2 E2 C2 | D2 C2 F2 F2 | %7
 F2 E2 F4 | F4 F4 |1 F4 F4 | F2 G2 F2 F2 | F6 E2 | F8 |] %13
V:3
 x8 | x8 | x8 | x8 | x8 | x8 | x8 | x8 | x8 |1 x8 | x8 | x8 | F,,8 |] %13
V:4
 C2 F,2 G,2 G,2 | A,2 A,2 C2 E,2 | F,2 G,2 F,2 E,2 | F,2 F,2 E,4 | C2 C2 C2 C2 | A,2 A,2 A,2 E,2 | %6
 F,2 G,2 C2 D2 | C2 C2 C4 | C4 C4 |1 B,4 A,4 | C2 C2 A,2 D2 | C6 B,2 | A,8 |] %13
V:5
 F,2 D,2 C,2 E,2 | F,2 D,2 A,,2 C,2 | B,,2 B,,2 A,,2 G,,2 | F,,2 A,,2 C,4 | F,2 F,2 E,2 E,2 | %5
 D,2 D,2 C,2 C,2 | B,,2 B,,2 A,,2 G,,2 | C,2 C,2 F,4 | F,4 A,4 |1 B,4 F,4 | F,2 E,2 D,2 G,,2 | %11
 (A,,3 B,, C,2) C,2 | F,8 |] %13

